www/source/img/svg/icon-whatsapp.svg

<svg width="20" height="20" viewBox="0 0 20 20" fill="none" xmlns="http://www.w3.org/2000/svg">
<g clip-path="url(#clip0)">
<path d="M5.28662 17.1292L5.61357 17.2908C6.97607 18.0988 8.50193 18.4758 10.0279 18.4758C14.8236 18.4758 18.7473 14.5975 18.7473 9.85737C18.7473 7.59506 17.8208 5.38656 16.186 3.77058C14.5511 2.15459 12.3711 1.23892 10.0279 1.23892C5.23216 1.23892 1.30834 5.11722 1.36287 9.91127C1.36287 11.5272 1.85334 13.0893 2.67076 14.4359L2.88873 14.7592L2.01685 17.9372L5.28662 17.1292Z" fill="#00E676"/>
<path d="M17.112 2.90873C15.2591 1.02347 12.6977 0 10.0819 0C4.52328 0 0.0545312 4.47081 0.108984 9.9112C0.108984 11.6349 0.599453 13.3048 1.41695 14.813L0 19.9302L5.28617 18.5836C6.75758 19.3916 8.39242 19.7687 10.0274 19.7687C15.5316 19.7687 20.0003 15.2978 20.0003 9.85745C20.0003 7.21799 18.9648 4.74015 17.112 2.90873H17.112ZM10.0819 18.0988C8.61047 18.0988 7.13906 17.7219 5.88562 16.9677L5.55867 16.8061L2.39789 17.6141L3.21531 14.5438L2.99734 14.2205C0.599453 10.3961 1.74391 5.33266 5.66766 2.96255C9.59141 0.59251 14.6596 1.72371 17.0575 5.60201C19.4553 9.48031 18.3109 14.4898 14.3872 16.8599C13.1337 17.6679 11.6078 18.0988 10.0819 18.0988V18.0988ZM14.8776 12.1198L14.2781 11.8505C14.2781 11.8505 13.4062 11.4734 12.8612 11.2041C12.8067 11.2041 12.7523 11.1502 12.6977 11.1502C12.5342 11.1502 12.4252 11.2041 12.3162 11.258C12.3162 11.258 12.2618 11.3118 11.4988 12.1737C11.4443 12.2814 11.3353 12.3353 11.2263 12.3353H11.1718C11.1173 12.3353 11.0084 12.2814 10.9538 12.2276L10.6813 12.1198C10.0819 11.8505 9.53695 11.5273 9.10094 11.0964C8.99195 10.9886 8.82844 10.8809 8.71945 10.7732C8.33797 10.3961 7.95648 9.96517 7.68406 9.48039L7.62953 9.37266C7.57508 9.31876 7.57508 9.26494 7.52055 9.15722C7.52055 9.0495 7.52055 8.94178 7.57508 8.88788C7.57508 8.88788 7.79305 8.61853 7.95648 8.45699C8.06555 8.34919 8.12 8.18765 8.22898 8.07992C8.33797 7.9183 8.3925 7.70286 8.33797 7.54124C8.28352 7.27189 7.62953 5.81753 7.46609 5.49436C7.35703 5.33274 7.24813 5.27892 7.08461 5.22502H6.48516C6.37609 5.22502 6.26719 5.27892 6.15812 5.27892L6.10359 5.33274C5.99461 5.38664 5.88563 5.49436 5.77664 5.54819C5.66766 5.65598 5.61313 5.76363 5.50414 5.87143C5.12266 6.35622 4.90469 6.94873 4.90469 7.54124C4.90469 7.97212 5.01367 8.40309 5.17719 8.78016L5.23172 8.94178C5.72219 9.96517 6.37609 10.8809 7.24813 11.6889L7.46609 11.9043C7.62953 12.0659 7.79305 12.1737 7.90203 12.3352C9.04648 13.3049 10.3544 14.0051 11.8258 14.3822C11.9893 14.436 12.2073 14.436 12.3708 14.4899H12.9157C13.1882 14.4899 13.5152 14.3822 13.7332 14.2744C13.8966 14.1667 14.0056 14.1667 14.1146 14.059L14.2237 13.9512C14.3327 13.8435 14.4416 13.7897 14.5506 13.6819C14.6596 13.5742 14.7686 13.4665 14.8231 13.3587C14.9321 13.1432 14.9866 12.8739 15.0411 12.6046V12.2276C15.0411 12.2276 14.9866 12.1737 14.8776 12.1198Z" fill="white"/>
</g>
<defs>
<clipPath id="clip0">
<rect width="20" height="20" fill="white"/>
</clipPath>
</defs>
</svg>

<svg width="20" height="20" fill="none" xmlns="http://www.w3.org/2000/svg"><g clip-path="url(#clip0)"><path d="M5.287 17.13l.327.16c1.362.809 2.888 1.186 4.414 1.186 4.796 0 8.72-3.878 8.72-8.619a8.6 8.6 0 00-2.562-6.086 8.708 8.708 0 00-6.158-2.532c-4.796 0-8.72 3.878-8.665 8.672 0 1.616.49 3.178 1.308 4.525l.218.323-.872 3.178 3.27-.808z" fill="#00E676"/><path d="M17.112 2.909C15.259 1.023 12.698 0 10.082 0 4.523 0 .055 4.47.109 9.911c0 1.724.49 3.394 1.308 4.902L0 19.93l5.286-1.346c1.472.808 3.106 1.185 4.741 1.185 5.505 0 9.973-4.471 9.973-9.912a9.718 9.718 0 00-2.888-6.948zm-7.03 15.19c-1.472 0-2.943-.377-4.196-1.131l-.327-.162-3.161.808.817-3.07-.218-.324C.6 10.396 1.744 5.333 5.667 2.963c3.924-2.37 8.993-1.24 11.39 2.639 2.398 3.878 1.254 8.888-2.67 11.258-1.253.808-2.78 1.239-4.305 1.239zm4.796-5.98l-.6-.268s-.872-.378-1.417-.647c-.054 0-.109-.054-.163-.054a.793.793 0 00-.382.108s-.054.054-.817.916a.3.3 0 01-.273.161h-.054a.416.416 0 01-.218-.107l-.273-.108c-.6-.27-1.144-.593-1.58-1.024-.11-.107-.273-.215-.382-.323-.381-.377-.763-.808-1.035-1.293l-.054-.107c-.055-.054-.055-.108-.11-.216 0-.107 0-.215.055-.27 0 0 .218-.268.381-.43.11-.108.164-.27.273-.377.109-.162.164-.377.109-.539-.054-.27-.708-1.723-.872-2.047-.109-.161-.218-.215-.381-.269h-.6c-.109 0-.218.054-.327.054l-.054.054c-.11.054-.218.161-.327.215-.11.108-.164.216-.273.323a2.727 2.727 0 00-.6 1.67c0 .431.11.862.273 1.24l.055.16a8.978 8.978 0 002.016 2.748l.218.215c.164.162.327.27.436.431a9.776 9.776 0 003.924 2.047c.163.054.381.054.545.108h.545c.272 0 .6-.108.817-.216.164-.107.273-.107.382-.215l.109-.108c.109-.107.218-.161.327-.27.109-.107.218-.214.272-.322.11-.216.164-.485.218-.754v-.377s-.054-.054-.163-.108z" fill="#fff"/></g><defs><clipPath id="clip0"><path fill="#fff" d="M0 0h20v20H0z"/></clipPath></defs></svg>
